X: 153
T: Crossing the Stream
N:"Playfully" "collected by J. O'Neill"
B:O'Neill's 153
Z:Transcribed by henrik.norbeck@mailbox.swipnet.se
M:3/4
L:1/8
K:G
G2|G3 B d2|(d2 B2) .e2|(d2 B2) g2|(d2 B2) .A2|
G3 B d2|(d2 B2) (GE)|D2 B2 A2|G4:|
d2|g3 f g2|e2 f2 g2|e2 a3 g|(f2 d2) .d2|
g3 f g2|e2 d2 c2|B2 A2 G2|d4 B2|
c3 d c2|B2 d2 g2|(ed)(cB)(AG)|(B2 A2) d2|
g3 f e2|d2 g2 e2|d2 g2 f2|g4||


